X:1
T:James Gibb editions
T:Ad Dominum cum tribularer - Lotti
T:#
%%score [ 1 2 3 4 ]
L:1/8
Q:1/4=96
M:2/2
K:F
V:1 treble nm="Soprano" snm="S"
V:2 treble nm="Alto" snm="A"
V:3 treble-8 nm="Tenor" snm="T"
V:4 bass nm="Bass" snm="B"
V:1
"^Ad Dominum cum tribularer""^Antonio Lotti\n(1667-1740)" z8 | z8 | z8 | z8 | z8 | z8 | z8 | z8 | %8
w: ||||||||
 z8 | z8 | z8 | z8 | z8 | G8 | G3 G G4- | G2 (FE) F2 F2 | F4 D2 D2 | B8 | B8- | B2 (AG) A2 A2 | %20
w: |||||Ad|Do- mi- num|* cum * tri- bu-|la- rer cla-|ma-|vi|* cum * tri- bu-|
 A4 F2 F2 | d8 | c8 | z8 | z2 c2 c2 =B2 | c2 A2 G4 | z8 | z2 B2 B2 A2 | B2 G4 F2- | F2 (ED) E2 E2 | %30
w: la- rer cla-|ma-|vi,||Et ex- au-|dí- vit me,||et ex- au-|di- vit, ex\-|* au\- * di- vit|
 F8 | z8 | z8 | z8 | z8 | A3 A d4 | c2 cc c2 BA | =B4 B2 ^c2 | d3 d d2 d2 | d8 | ^c4 c2 c2 | %41
w: me.|||||Do- mi- ne,|* lí- be- ra a- ni-|me- am a|la- bi- is i-|ni-|quis Et a|
 d4 =B2 B2 | (=B8- | B3 ^G A4- | A2 ^G^F G4) | A8 | z8 | c4 A2 A2 | B4 G2 G2 | c4 c2 c2 | c4 A4 | %51
w: lin- gua do-|lo\-|||sa.||Quid de- tur|tí- bi, aut|quid ap- po-|na- tur|
 B4 A4 | z4 z2 d2 | ^c4 c2 c2 | (d4 A4 | B8) | A8 | z8 | z8 | z8 | z8 | z4 z2 d2 | B2 GA B2 Bc | %63
w: tí- bi|Ad|lín- guam do|lo\- *||sam?|||||Sa-|git- tae po- ten- tis a-|
 d2 D2 d2 d2 | ^c3 c =c2 c2 | =B4 _B4 | A3 A A2 A2 | G4 G4 | ^F3 F G2 B2 | (B2 AG A2) G2 | %70
w: cu- tae, Cum car-|bo- ni- bus de-|so- la-|to- ri- is, de-|so- la-|to- ri- is, de-|so\- * * * la-|
 (^F2 G4) F2 | G4 G2 G2 | c4 =B4 | c2 e2 A2 c2 | d3 c =B4 | c4 z4 | z8 | z8 | z8 | z8 | z4 c2 c2 | %81
w: to\- * ri-|is. He- u|mí- hi,|quí- a in- co-|la- tus me-|us|||||Ha- bi|
 =B2 BB A2 A2 | G2 GA (!courtesy!_B4 | A6 GF) | G4 G2 G2 | G3 G E4 | c2 c2 c3 c | A4 f2 f2 | %88
w: ta- vi cum ha- bi-|tan- ti- bus Ce\-||dar; Mul- tum|in- co- la,|mul- tum in co-|la, mul- tum|
 f3 f d4 | B2 B2 _e4- | e2 c4 B2 | (A3 B c4- | cB B4 A2) | B4 d4 | d2 d4 d2 | B2 B2 G4 | F4 B4 | %97
w: in- co- la|fu- it a\-|* ni ma|me\- * *||a. Cum|his qui o-|de- runt pa-|cem e-|
 A2 A2 G3 G | ^F8 | d2 d2 =B2 d2 | G2 G2 z4 | z8 | F3 F (FGF_E | D2) D2 B3 B | (BcB_A GAGF | %105
w: ram pa- cí- fi-|cus:|Cum lo- que- bar|íl- lis,||im- pu- gna\- * * *|* bant, im- pu-|gna\- * * * * * * *|
 _E2 E2 c3 c | (cdcB !courtesy!=A4) | =B2 c2 B2 B2 | z2 =B4 c2 | d4 c3 c | =B2 c4 B2) | c8 | z8 | %113
w: * bant, im- pu-|gna\- * * * *|bant me gra- tis,|im- pu-|gna- bant me|gra\- * *|tis.||
 z8 | z8 | z8 | z8 | (F3 G A2) B2 | (A4 G3 A | B2 G3 A =B2 | c2 A2) G4 | z8 | z2 (F2 G2 A2 | %123
w: ||||A\- * * men,|a\- * *||* * men,||a\- * *|
 B2 G2 A3 B) | c2 (c4 BA | BG B4 AG | AG G4 ^F2) | G4 z4 | z2 (G2 A2 =B2) | c4 z4 | z4 z2 (c2 | %131
w: |men, a\- * *|||men,|a\- * *|men,|a\-|
 d2 e2 f2 d2) | c4 (B4- | B2 A4 G2- | GF F4 E2) | %135
w: |men, a\-|||
[Q:1/4=95] F2[Q:1/4=94] (A2[Q:1/4=93] B2[Q:1/4=92] c2 |[Q:1/4=90] d4)[Q:1/4=88] c4 |[Q:1/4=85] d8 | %138
w: men, a\- * *|* men,|a-|
[Q:1/4=84] c16 |] %139
w: men.|
V:2
 z8 | z8 | z8 | z8 | z8 | z8 | z8 | z8 | z8 | z8 | z8 | F8 | F3 F F4- | F2 (ED) E2 E2 | E4 C2 C2 | %15
w: |||||||||||Ad|Do- mi- num|* cum * tri- bu-|la- rer cla-|
 A8 | A8- | A2 (GF) G2 G2 | G4 G2 G2 | (G2 FE) F2 F2 | F2 F2 A4 | F2 F2 E4 | F8 | z4 z2 F2 | %24
w: ma-|vi,|* cum * tri- bu-|la- rer cla-|ma\- * * vi, cum|tri- bu- la-|rer cla- ma-|vi,|Et|
 F2 E2 F2 D2 | C8 | D4 E2 (F2- | F2 E2) (F3 E) | D2 E2 C2 C2 | C6 C2 | C8 | z8 | z8 | z8 | %34
w: ex- au- dí- vit|me,|et ex- au\-|* * di\- *|vit, et ex- au-|di- vit|me.||||
 D3 D A4 | F2 FF F2 ED | E4 E2 ^F2 | G3 G G2 G2 | F4 F2 F2 | F8 | E4 A2 A2 | A4 D2 D2 | (D8- | %43
w: Do- mi- ne,|lí- be- ra a- ni- mam|me- am a|la- bi- is i-|ní- quis, i-|ni-|quis Et a|lin- gua do|lo\-|
 D4 C2 =B,A, | E8) | E4 A4 | F2 F2 G4 | E2 E2 F4 | F2 F2 G2 G2 | G4 A2 A2 | F2 FF F2 F2 | G4 F4 | %52
w: ||sa. Quid|de- tur tí-|bi, aut quid|ap- po- na- tur|tí- bi, aut|quid ap- po- na- tur|tí- bi|
 z4 z2 F2 | G4 G2 G2 | (^F8 | E8) | ^F8 | z8 | z2 G2 ^F2 DE | ^F2 FG A2 A,2 | A2 A2 ^G3 G | %61
w: Ad|lín- guam do|lo\-||sam?||Sa- git- tae po-|ten- tis a- cu- tae,|Cum car- bo- ni-|
 =G2 G2 ^F2 A2 | D3 D D4 | z4 z2 ^F2 | E2 A,=B, C2 CD | E2 E2 E2 E2 | E3 E D2 D2 | D4 ^C4 | %68
w: bus de- so- la-|to- ri- is,|sa-|git- tae po- ten- tis a|cu- tae, Cum car-|bo- ni- bus de-|so- la-|
 D3 D D2 G2 | _E4 E4 | D6 D2 | D8 | C2 C2 G4 | E4 F2 A2 | D2 F2 G3 F | E4 D4 | z8 | z8 | z8 | %79
w: to- ri- is, de-|so- la-|to- ri-|is.|He- u mí-|hi, quí- a|in- co- la- tus|me- us||||
 z4 G2 G2 | F2 FF E2 E2 | (D3 E F2) C2 | C4 (F3 E/D/ | C2 F4 ED | E4) E2 E2 | E3 E C4 | z4 A2 A2 | %87
w: Ha- bi-|ta- vi cum ha- bi-|tan\- * * ti-|bus Ce\- * *||dar; Mul- tum|in- co- la,|mul- tum|
 A3 A F4 | z4 B2 B2 | B3 B G4 | G2 G2 G2 GG | F8- | F8 | F4 F4 | F2 F4 F2 | G2 F2 _E4 | D4 F4 | %97
w: in- co- la,|mul- tum|ín- cola *|fu- it a- ni- ma|me\-||a. Cum|his qui o-|de- runt pa-|cem e-|
 _E2 E2 D3 D | D8 | z8 | G2 G2 _E2 G2 | C2 C2 F3 F | (FGF_E DEDC | B,2) B,2 z4 | z4 G3 G | %105
w: ram pa- cí- fi-|cus:||Cum lo- que- bar|íl- lis, im- pu-|gna\- * * * * * * *|* bant,|im- pu-|
 (G_AGF E2) E2 | F3 F F4 | G2 G2 G2 G2 | z2 G4 G2 | _A4 G2 A2 | G8 | G8 | z8 | z8 | z8 | %115
w: gna\- * * * * bant,|im- pu- gna-|bant me gra- tis,|im- pu-|gna- bant me|gra-|tis.||||
 (C3 D E2) F2 | (E4 D3 E | F6) E2 | (F2 D2 E4 | F2 G4 F2 | E2 F2) E4 | z8 | z4 z2 (C2 | %123
w: A\- * * men,|a\- * *|* men,|a\- * *||* * men,||a\-|
 D2 E2 F2 D2) | E4 ^F3 F | (G3 =F _E4- | E2 C2 D4) | D4 z4 | z2 (E2 F2 G2) | E4 z4 | z4 z2 (E2 | %131
w: |men, a- men,|a\- * *||men,|a\- * *|men,|a\-|
 F2 G2 A2 F2) | F2 (A4 G2- | G2 F4 ED | C8- | C2) C2 G2 G2 | F4 F4 | F8 | F16 |] %139
w: |men, a\- *|||* men, a- men,|a- men,|a-|men.|
V:3
 z8 | z8 | G8 | G3 G G4- | G2 (FE) F2 F2 | F4 D2 D2 | B8 | B8- | B2 (AG) A2 A2 | A4 F2 F2 | (d8 | %11
w: ||Ad|Do- mi- num|* cum * tri- bu-|la- rer cla-|ma-|vi,|* cum * tri- bu-|la- rer cla-|ma\-|
 c3 B) A2 A2 | (A3 G A2 =B2) | c6 c2 | c4 c4 | c4 c2 c2 | d8 | d2 d2 d2 (cB) | c8 | c2 c2 c2 c2 | %20
w: * * vi, cla-|ma\- * * *|vi, cum|tri- bu-|la- rer cla-|ma-|vi, cum tri- bu\- *|la-|rer, cum tri- bu-|
 d4 c2 c2 | (c2 BA G4) | A6 c2 | c2 =B2 c2 A2 | G4 z4 | z2 f2 f2 e2 | f2 d2 c2 c2 | B2 B2 c4 | %28
w: la- rer cla-|ma\- * * *|vi, Et|ex- au- dí- vit|me,|et ex- au-|di- vit me, et|ex- au- di-|
 B2 c2 A2 A2 | G6 G2 | A8 | z8 | A3 A d4 | c2 cc c2 BA | B4 A2 e2 | d3 A A2 A2 | A4 c2 c2 | %37
w: vit, et ex- au-|di- vit|me.||Do- mi- ne,|lí- be- ra a- ni- mam|me- am a|la- bi- is i-|ni- quis, a|
 d3 d d2 e2 | =B4 B2 B2 | =B8 | ^c4 e2 e2 | A4 ^G2 G2 | (^G8- | G3 =B e2 dc | =B8) | ^c8 | %46
w: la- bi- is i-|ní- quis, i-|ni-|quis Et a|lin- gua do|lo\-|||sa.|
 d4 !courtesy!_B2 B2 | c4 c4 | d4 c2 c2 | e4 f2 f2 | A2 AA c2 c2 | c4 c4 | z2 A2 A4 | %53
w: Quid de- tur|tí- bi,|quid de- tur|tí- bi, aut|quid ap- po- na- tur|tí- bi|Ad lin-|
 !courtesy!_B6 (AG) | (A4 d4 | ^c8) | d8 | z2 d2 B2 GA | B2 Bc d2 D2 | d2 d2 ^c3 c | %60
w: guam do- *|lo\- *||sam?|Sa- gít- tae po-|ten- tis a- cu- tae,|Cum car- bo- ni-|
 =c2 c2 =B2 B2 | !courtesy!_B3 B A2 ^F2 | G4 G4 | (A2 ^FG A3 =B | ^c3) d e4 | z4 z2 !courtesy!_B2 | %66
w: bus de- so- la-|to- ri- is, de-|so- la-|to\- * * * *|* ri- is,|de|
 c4 A4 | (B3 A G4 | A3) A B2 d2 | (d2 cB c2) c2 | (c2 B2 A3) A | =B8 | z8 | z8 | z4 G2 G2 | %75
w: so- la-|to\- * *|* ri- is, de-|so\- * * * la-|tó\- * * ri-|is.|||He- u|
 c4 =B4 | c2 e2 A2 c2 | d3 c =B4 | c4 A2 d2 | (=B4 c4- | c2) =B2 c4 | z4 z2 c2 | G2 G2 F2 FG | %83
w: mí hi,|qui- a in- co-|la- tus me-|us pro- lon-|ga\- *|* tus est!|cum|ha- bi- tan- ti- bus|
 (A3 B c3 d) | c8 | z4 c2 c2 | c3 c A4 | z4 d2 d2 | d3 d G4 | z4 B2 B2 | c3 d _e4 | (_e6 dc | %92
w: Ce\- * * *|dar;|Mu- ltum|in- co- la,|mul- tum|in- co- la|fu- it|a- ni- ma|me\- * *|
 d3 c/B/ c4) | d4 d4 | d2 d4 d2 | d2 d2 B4 | B4 d4 | c2 c2 B3 B | A4 d2 d2 | =B2 d2 G2 G2 | %100
w: |a. Cum|his qui o-|de- runt pa-|cem e-|ram pa- cí- fi-|cus: Cum lo-|que- bar íl- lis,|
 z4 c3 c | (cdcB ABAG | F2) F2 f3 f | (fgf_e dedc | B2) B2 _e3 e | (_efed c2) c2 | c3 c c4 | %107
w: im- pu-|gna\- * * * * * * *|* bant, im- pu-|gna\- * * * * * * *|* bant, im- pu-|gna\- * * * * bant,|im- pu- gna-|
 d2 _e2 d2 d2 | z2 d4 _e2 | f4 _e2 f2 | (f2 _e2 d4) | !courtesy!=e8 | z8 | (c3 d e2) f2 | %114
w: bant me gra- tis,|im- pu-|gna- bant me|gra\- * *|tis.||A\- * * men,|
 (e4 d3 e) | f2 A2 (B2 A2 | G2 A2 d4 | c6 B2 | c2 AB) c4 | z2 (c4 d2 | G2 AB) c2 (c2 | %121
w: a\- * *|men, a\- * *|||* * * men,|a\- *|* * * men, a\-|
 d2 e2 f2 d2) | c4 (B2 A2 | G2 c4 A2) | G4 d3 d | (dB d4 cB | c2 G2 A4) | =B2 (B2 c2 d2) | e4 z4 | %129
w: |men, a\- *||men, a- men,|a\- * * * *||men, a\- * *|men,|
 z2 (E2 F2 G2 | A2 F2) E2 (e2 | d2 B2 c2 B2) | A2 (f2 B4 | c3 d B4 | A4 G4) | A2 (f4 _e2 | %136
w: a\- * *|* * men, a\-||men, a\- *|||men, a\- *|
 d2 cB) A2 (c2- | c2 BA B4- | B2 AG) A12 |] %139
w: * * * men, a\-||* * * men.|
V:4
 F,8 | F,3 F, F,4- | F,2 (E,D,) E,2 E,2 | E,4 C,2 C,2 | A,8 | A,8- | A,2 (G,F,) G,2 G,2 | %7
w: Ad|Do- mi- num|* cum * tri- bu-|la- rer cla-|ma-|vi,|* cum * tri- bu-|
 G,4 E,2 E,2 | C8 | C8- | C2 (B,A,) B,2 B,2 | (A,3 G,) F,2 E,2 | D,8 | C,2 C,2 C2 C2 | C4 E,2 E,2 | %15
w: la- rer cla-|ma-|vi,|* cum * tri- bu-|la\- * rer cla-|ma-|\-vi, cum tri- bu-|la- rer cla-|
 (F,6 E,2) | D,6 (E,F,) | G,8 | E,2 E,2 E,2 (D,C,) | F,4 F,2 F,2 | (D,3 E, F,2 G,A, | B,4 B,,4) | %22
w: ma\- *|vi, cla\- *|ma-|vi, cum tri- bu\- *|la- rer cla-|ma\- * * * *||
 F,6 F,2 | E,2 D,2 E,2 F,2 | C,4 z4 | z4 z2 C2 | C2 =B,2 C2 A,2 | G,4 F,4 | (G,2 E,2) F,4 | %29
w: vi, Et|ex- au- dí- vit|me,|et|ex- au- dí- vit|me, et|ex\- * au-|
 C,6 C,2 | F,8 | D,3 D, A,4 | F,2 F,F, F,2 E,D, | E,4 E,2 ^F,2 | G,3 G, ^C,2 C,2 | D,8 | %36
w: di- vit|me.|Do- mi- ne,|li- be- ra a- ni- mam|me- am a|la- bi- is i-|ni-|
 A,,4 z2 A,2 | G,3 G, G,2 G,2 | ^G,4 G,2 G,2 | ^G,8 | A,4 A,2 A,2 | F,4 F,2 F,2 | E,8- | E,8 | %44
w: quis, a|la- bi- is i-|ní- quis, i-|ni-|quis Et a|lin- gua do-|lo\-||
 E,8 | A,,8 | z8 | z4 F,4 | D,2 D,2 E,4 | C,2 C,2 F,4 | F,2 F,2 F,2 F,2 | E,4 F,4 | z2 F,2 F,4 | %53
w: |sa.||Quid|de- tur tí-|bi, aut quid|ap- po- na- tur|tí- bi|Ad lin-|
 _E,6 E,2 | (D,8 | G,8) | D,8 | z8 | z8 | z8 | z8 | z8 | z4 z2 G,2 | ^F,2 D,E, F,2 F,G, | %64
w: guam do-|lo\-||sam?||||||Sa-|git- tae po- ten- tis a-|
 A,2 A,,2 A,2 A,2 | ^G,3 G, =G,2 G,2 | ^F,4 =F,4 | (!courtesy!=E,4 _E,4 | D,3) D, G,2 G,2 | %69
w: cu- tae, Cum car-|bo- ni- bus de-|so- la-|to\- *|* ri- is, de-|
 C,4 C,4 | D,6 D,2 | G,,8 | z8 | z8 | z8 | C,2 C,2 G,4 | E,4 F,2 A,2 | D,2 F,2 G,3 F, | E,4 F,4 | %79
w: so- la-|to- ri-|is.||||He- u mi-|hi, qui- a|in- co- la- tus|me- us|
 D,2 G,2 (E,2 D,C, | D,2) D,2 C,4 | G,2 G,2 F,2 F, F, | E,2 E,2 D,2 D,E, | F,8 | C,8 | z8 | %86
w: pro- lon- ga\- * *|* tus est!|Ha- bi- ta- vi cum|ha- bi- tan- ti- bus|Ce-|dar;||
 z4 F,2 F,2 | F,3 F, D,4 | B,2 B,2 B,3 B, | G,4 _E,2 E,2 | _E,4 E,2 E,2 | F,8- | F,8 | B,,4 B,4 | %94
w: Mul- tum|in- co- la,|mul- tum in- co-|la fu it|a- ni- ma|me\-||a. Cum|
 B,2 B,4 B,2 | G,2 D,2 _E,4 | B,,4 B,4 | ^F,2 F,2 G,3 G, | D,8 | z4 G,2 G,2 | _E,2 G,2 C,2 C,2 | %101
w: his qui o-|de- runt pa-|cem e-|ram pa- cí- fi-|cus:|Cum lo-|que- bar íl- lis,|
 F,3 E, (F,G,F,_E, | D,_E,D,C, B,,2) B,,2 | B,3 B, (B,CB,_A, | G,_A,G,F, _E,2) E,2 | C3 C (CDCB, | %106
w: im- pu- gna\- * * *|* * * * * bant,|im- pu- gna\- * * *|* * * * * bant,|im- pu- gna\- * * *|
 _A,B,A,G, F,4) | G,2 C,2 G,2 G,2 | z2 G,4 C2 | =B,4 C2 C,2 | G,8 | C,8 | (F,3 G, A,2) B,2 | %113
w: |bant me gra- tis,|im- pu-|gna- bant me|gra-|tis.|A\- * * men,|
 (A,4 G,2 A,B, | C3 A, B,2 G,2 | A,2 F,2 G,2 F,2) | C,2 (C4 B,2 | A,3 G, F,2 G,2 | F,4) C,2 (C,2 | %119
w: a\- * * *|||men, a\- *||* men, a\-|
 D,2 E,2 F,2 D,2) | C,8 | z2 (G,2 A,2 B,2 | C2 A,2 G,2 F,2 | B,,2 C,2 F,4) | C,4 D,3 D, | %125
w: |men,|a\- * *|||men, a- men,|
 (G,4 (C,4 | C,2) _E,2) D,4 | G,,2 (G,2 A,2 =B,2) | C4 z4 | z2 (C,2 D,2 E,2 | F,2 D,2) C,2 C2- | %131
w: a\- *||men, a\- * *|men,|a\- * *|* * men, a\-|
 CB, G,2 F,2 B,2 | F,4 (G,3 F, | E,2 F,2 D,2 E,2 | F,4 C,4) | F,2 (F,2 G,2 A,2 | B,4) F,4 | B,,8 | %138
w: |men, a\- *|||men, a\- * *|* men,|a-|
 F,16 |] %139
w: men.|

